!!!OTL: Guijiang shuiji tan you wan
!!!ARE: Asia, China,ÿGuangxi, Wuzhou
!! II, 526
!!!SCT: C1528A
!!!YEM: Copyright 1995, estate of Helmut Schaffrath.
**kern
*ICvox
*Ivox
!! Mixed meters:  2/4; 3/4; 4/4
*M3/4
*k[f#c#g#]
*A:
{2ff#
8cc#
8cc#
=1
*M2/4
8b
16ff#
16ee
8cc#
16ff#
16ee
=2
8b
8ee
8ff#
16ee
16cc#}
=3
{8.ff#
16ee
8cc#
8cc#
=4
8.cc#
16ee
8ff#
8aa
=5
*M3/4
8cc#
8b
8.b
16a
4f#}
=6
*M2/4
{8cc#
16f#
16a
8f#
8cc#
=7
*M3/4
8a
16b
16a
8f#
8f#
8cc#
8cc#
=8
8a
8b
4b
4a}
=9
{2ff#
8cc#
8cc#
=10
8cc#
16ee
16ee
8b
8ff#
8ff#
16ee
16cc#}
=11
*M2/4
{8.ff#
16ee
8cc#
8cc#
=12
8.cc#
16ee
8ff#
8aa
=13
*M3/4
8cc#
8b
8.b
16a
4f#}
=14
{8cc#
16f#
16a
8f#
8cc#
8cc#
8b
=15
8cc#
16f#
16a
8cc#
8b
8f#
8cc#
=16
8cc#
8cc#
4b
4a}
=17
{2ff#
8cc#
8cc#
=18
8cc#
8f#
8cc#
8ff#
8ff#
16ee
16cc#}
=19
*M2/4
{8.ff#
16ee
8cc#
8cc#
=20
8.cc#
16ee
8ff#
8aa
=21
*M3/4
8cc#
8b
8.b
16a
4f#}
=22
*M2/4
{8cc#
16f#
16a
8f#
8cc#
=23
8cc#
8b
8f#
8cc#
=24
8cc#
8cc#
4b
4a}
==
!!!AGN: Haozi, Chuangong haozi, Pingshui diao
!!!AMT: irregular
!!!AIN: vox
!!!EED: Helmut Schaffrath
!!!EEV: 1.0
*-
